conversation/frontend/src/assets/illu-messageRecalled.svg

<svg fill="none" height="120" viewBox="0 0 176 120" width="176" xmlns="http://www.w3.org/2000/svg" xmlns:xlink="http://www.w3.org/1999/xlink"><clipPath id="a"><path d="m0 0h176v120h-176z"/></clipPath><g clip-path="url(#a)"><path d="m133.734 83.0396c.262.4698.528.9308.775 1.4044 1.168 2.252 1.859 4.6004 1.071 7.1599-.348 1.1348-.834 2.2311-1.254 3.342 6.409 1.9735 12.329.6807 17.832-3.052 1.771-1.1981 2.916-2.9591 3.382-5.0655.355-1.5952-.135-3.0389-1.18-4.2506-1.056-1.2235-2.437-1.938-3.914-2.5563-1.55-.6491-3.132-1.2527-4.523-2.2284-.713-.4977-1.145-1.1764-1.073-2.1391.055-.7231.588-1.0662 1.034-1.4364 1.367-1.1516 3.018-1.7738 4.651-2.4127 3.113-1.2138 6.313-2.2096 9.306-3.7308 4.34-2.2086 8.121-5.134 11.154-8.995 1.183-1.5073 2.082-3.1844 2.501-5.0798.543-2.4507-.687-5.0632-2.761-6.4093-1.202-.7793-2.399-1.4977-3.77-1.8813-3.035-.8544-5.913-.1722-8.704 1.1167-2.822 1.3009-5.06 3.3849-7.242 5.5415-2.353 2.3253-4.58 4.7876-7.094 6.9449-1.347 1.1572-2.786 2.1455-4.531 2.5741-1.161.2836-2.18.1902-3.05-.7989-.728-.82-1.506-1.6222-2.417-2.2516-2.176 3.8672-4.325 7.7561-6.548 11.5962-.685 1.1849-1.361 2.3858-2.059 3.5633-.49.8263-1.291 1.596-1.313 2.6804.036-.0026.066.0035.094.0139.859-.742 1.83-1.3209 2.764-1.9556 1.535-1.0373 3.114-1.9622 4.814-2.6785 2.439-1.0218 5.005-1.6392 7.546-2.3006 2.886-.7469 5.526-1.8797 7.903-3.7497 3.715-2.9289 6.995-6.3454 10.546-9.4559.906-.7957 1.811-1.5983 2.738-2.3704.493-.4127 1.195-.3335 1.553.1862.328.4733.132.8654-.288 1.2392-1.056.9475-2.059 1.9607-3.124 2.9033-2.454 2.1739-4.819 4.4402-7.245 6.6426-2.383 2.1687-4.884 4.1941-7.9 5.4467-1.738.7233-3.56 1.0962-5.367 1.5125-.986.2275-1.949.5551-2.949.7571-.979.1964-1.905.6967-2.849 1.0702-2.294.908-4.257 2.3545-6.187 3.8612 1.895 1.0918 3.786 2.1812 5.681 3.273 1.028-.1804 2.054-.0305 3.02.195 2.089.4838 4.162 1.0274 6.112 1.994.92.4545 1.679.9614 2.22 1.8188.298.474.45.9561.039 1.4337-.278.3272-.982.2007-1.47-.2314-.269-.2365-.492-.5447-.784-.7307-2.187-1.3699-4.628-2.027-7.13-2.5166z" fill="#2d9bc8"/><path d="m50.0608 105.859c.1523.407.3061.818.4551 1.231.1678.454.3308.91.497 1.359-1.9173.84-4.5358 1.684-7.6958 1.882-1.7709.114-4.3292.244-7.3651-.827-1.4902-.523-2.9147-1.285-4.2751-2.29-2.6258-1.947-4.8928-4.205-6.3998-7.156-.9208-1.8048-1.0401-3.6156-.0746-5.4551.5676-1.0744 1.6298-1.419 2.6367-1.8199.8713-.3463 1.8236-.491 2.6622-.922 1.6102-.8245 2.4794-2.1929 2.7605-3.9587.2794-1.7546.2217-3.5218.18-5.2889-.0506-2.204-.106-4.4065.3107-6.5873.3734-1.9547 1.1775-3.7047 2.4425-5.2386.3038-.3689.6393-.7215 1.1287-.859.0349.0098.073.0134.1096.0121 1.0713 3.1394 2.141 6.2741 3.2123 9.4135.0307.1278.0101.2935.1959.3286.3697.9982.7378 1.9917 1.1075 2.9899-.0258.0508-.0517.1016-.0761.1572-.7543-.847-1.2719-1.8449-1.7767-2.8523-.1671-.3379-.3632-.6506-.6956-.8289-.3466-.1896-.7335-.3079-1.0907-.0224-.3571.2854-.4574.6624-.3054 1.1007.1038.3054.1614.6312.31.9116 1.344 2.5104 3.1524 4.6423 5.2716 6.5249.0677.0788.1369.1623.2046.241.0871.2208-.0519.4779.1244.6804.0307.1278.0038.2902.1911.3301 1.4321 4.0611 2.9934 8.0802 4.2597 12.2001.1808.593.3712 1.183.5553 1.77-.2043-.092-.4199-.171-.6193-.281-3.7508-2.058-7.8225-3.0636-12.0106-3.6762-1.9582-.2867-3.9133-.2035-5.843.237-.7234.1659-1.0653.7113-.9145 1.2772.1184.465.7941.839 1.398.712 2.5428-.554 5.0465-.265 7.5579.23 1.2859.25 4.2015 1.26 9.9916 3.61.6322.256 1.1519.474 1.4926.613.0263.081.0622.16.0933.24z" fill="#2d9bc8"/><path d="m79.2867 15.6406 16.8396 19.041" stroke="#2d9bc8" stroke-width="3"/><path d="m68.3228 18.5859-5.0885 24.9323" stroke="#2d9bc8" stroke-width="3"/><rect fill="#fac18a" height="72.0676" rx="15" transform="matrix(.965753 -.259465 .258175 .966098 31.6801 50.0312)" width="98.391"/><ellipse cx="9.46067" cy="9.48257" fill="#fac18a" rx="9.46067" ry="9.48257" transform="matrix(.965753 -.259465 .258175 .966098 60.751 4.90625)"/><path d="m84.633 56.3617-2.8356.6087 2.016-2.1526c.9813-1.0486.9376-2.7191-.0977-3.729-1.0353-1.01-2.6716-.9787-3.6529.07l-7.7932 8.3256c-.5674.6055-.8163 1.4551-.6668 2.2857.149.8289.6772 1.5402 1.4198 1.9121l10.7745 5.3832c.5403.2706 1.127.3313 1.6702.2147.7499-.161 1.4199-.661 1.778-1.4178.6186-1.3079.0783-2.8869-1.2067-3.531l-4.0182-2.0075 3.7154-.7976c5.7727-1.2393 11.495 2.5545 12.7553 8.4566l.6568 3.0758c1.2601 5.902-2.4111 11.7125-8.1838 12.9518l-6.4388 1.3823c-1.3947.2994-2.277 1.6982-1.9729 3.1222.3041 1.4241 1.6803 2.338 3.0749 2.0386l6.4388-1.3823c8.5569-1.8369 13.9989-10.4501 12.1309-19.1985l-.657-3.0758c-1.868-8.7483-10.3486-14.3725-18.907-12.5352z" fill="#fff"/></g></svg>

<svg width="176" height="120" viewBox="0 0 176 120" fill="none" xmlns="http://www.w3.org/2000/svg">
<g clip-path="url(#clip0_3727_92844)">
<path d="M133.734 83.0396C133.996 83.5094 134.262 83.9704 134.509 84.444C135.677 86.696 136.368 89.0444 135.58 91.6039C135.232 92.7387 134.746 93.835 134.326 94.9459C140.735 96.9194 146.655 95.6266 152.158 91.8939C153.929 90.6958 155.074 88.9348 155.54 86.8284C155.895 85.2332 155.405 83.7895 154.36 82.5778C153.304 81.3543 151.923 80.6398 150.446 80.0215C148.896 79.3724 147.314 78.7688 145.923 77.7931C145.21 77.2954 144.778 76.6167 144.85 75.654C144.905 74.9309 145.438 74.5878 145.884 74.2176C147.251 73.066 148.902 72.4438 150.535 71.8049C153.648 70.5911 156.848 69.5953 159.841 68.0741C164.181 65.8655 167.962 62.9401 170.995 59.0791C172.178 57.5718 173.077 55.8947 173.496 53.9993C174.039 51.5486 172.809 48.9361 170.735 47.59C169.533 46.8107 168.336 46.0923 166.965 45.7087C163.93 44.8543 161.052 45.5365 158.261 46.8254C155.439 48.1263 153.201 50.2103 151.019 52.3669C148.666 54.6922 146.439 57.1545 143.925 59.3118C142.578 60.469 141.139 61.4573 139.394 61.8859C138.233 62.1695 137.214 62.0761 136.344 61.087C135.616 60.267 134.838 59.4648 133.927 58.8354C131.751 62.7026 129.602 66.5915 127.379 70.4316C126.694 71.6165 126.018 72.8174 125.32 73.9949C124.83 74.8212 124.029 75.5909 124.007 76.6753C124.043 76.6727 124.073 76.6788 124.101 76.6892C124.96 75.9472 125.931 75.3683 126.865 74.7336C128.4 73.6963 129.979 72.7714 131.679 72.0551C134.118 71.0333 136.684 70.4159 139.225 69.7545C142.111 69.0076 144.751 67.8748 147.128 66.0048C150.843 63.0759 154.123 59.6594 157.674 56.5489C158.58 55.7532 159.485 54.9506 160.412 54.1785C160.905 53.7658 161.607 53.845 161.965 54.3647C162.293 54.838 162.097 55.2301 161.677 55.6039C160.621 56.5514 159.618 57.5646 158.553 58.5072C156.099 60.6811 153.734 62.9474 151.308 65.1498C148.925 67.3185 146.424 69.3439 143.408 70.5965C141.67 71.3198 139.848 71.6927 138.041 72.109C137.055 72.3365 136.092 72.6641 135.092 72.8661C134.113 73.0625 133.187 73.5628 132.243 73.9363C129.949 74.8443 127.986 76.2908 126.056 77.7975C127.951 78.8893 129.842 79.9787 131.737 81.0705C132.765 80.8901 133.791 81.04 134.757 81.2655C136.846 81.7493 138.919 82.2929 140.869 83.2595C141.789 83.714 142.548 84.2209 143.089 85.0783C143.387 85.5523 143.539 86.0344 143.128 86.512C142.85 86.8392 142.146 86.7127 141.658 86.2806C141.389 86.0441 141.166 85.7359 140.874 85.5499C138.687 84.18 136.246 83.5229 133.744 83.0333L133.734 83.0396Z" fill="#2D9BC8"/>
<path d="M50.0608 105.859C50.2131 106.266 50.3669 106.677 50.5159 107.09C50.6837 107.544 50.8467 108 51.0129 108.449C49.0956 109.289 46.4771 110.133 43.3171 110.331C41.5462 110.445 38.9879 110.575 35.952 109.504C34.4618 108.981 33.0373 108.219 31.6769 107.214C29.0511 105.267 26.7841 103.009 25.2771 100.058C24.3563 98.2532 24.237 96.4424 25.2025 94.6029C25.7701 93.5285 26.8323 93.1839 27.8392 92.783C28.7105 92.4367 29.6628 92.292 30.5014 91.861C32.1116 91.0365 32.9808 89.6681 33.2619 87.9023C33.5413 86.1477 33.4836 84.3805 33.4419 82.6134C33.3913 80.4094 33.3359 78.2069 33.7526 76.0261C34.126 74.0714 34.9301 72.3214 36.1951 70.7875C36.4989 70.4186 36.8344 70.066 37.3238 69.9285C37.3587 69.9383 37.3968 69.9419 37.4334 69.9406C38.5047 73.08 39.5744 76.2147 40.6457 79.3541C40.6764 79.4819 40.6558 79.6476 40.8416 79.6827C41.2113 80.6809 41.5794 81.6744 41.9491 82.6726C41.9233 82.7234 41.8974 82.7742 41.873 82.8298C41.1187 81.9828 40.6011 80.9849 40.0963 79.9775C39.9292 79.6396 39.7331 79.3269 39.4007 79.1486C39.0541 78.959 38.6672 78.8407 38.31 79.1262C37.9529 79.4116 37.8526 79.7886 38.0046 80.2269C38.1084 80.5323 38.166 80.8581 38.3146 81.1385C39.6586 83.6489 41.467 85.7808 43.5862 87.6634C43.6539 87.7422 43.7231 87.8257 43.7908 87.9044C43.8779 88.1252 43.7389 88.3823 43.9152 88.5848C43.9459 88.7126 43.919 88.875 44.1063 88.9149C45.5384 92.976 47.0997 96.9951 48.366 101.115C48.5468 101.708 48.7372 102.298 48.9213 102.885C48.717 102.793 48.5014 102.714 48.302 102.604C44.5512 100.546 40.4795 99.5404 36.2914 98.9278C34.3332 98.6411 32.3781 98.7243 30.4484 99.1648C29.725 99.3307 29.3831 99.8761 29.5339 100.442C29.6523 100.907 30.328 101.281 30.9319 101.154C33.4747 100.6 35.9784 100.889 38.4898 101.384C39.7757 101.634 42.6913 102.644 48.4814 104.994C49.1136 105.25 49.6333 105.468 49.974 105.607C50.0003 105.688 50.0362 105.767 50.0673 105.847L50.0608 105.859Z" fill="#2D9BC8"/>
<path d="M79.2867 15.6406L96.1263 34.6816" stroke="#2D9BC8" stroke-width="3"/>
<path d="M68.3228 18.5859L63.2343 43.5182" stroke="#2D9BC8" stroke-width="3"/>
<rect width="98.391" height="72.0676" rx="15" transform="matrix(0.965753 -0.259465 0.258175 0.966098 31.6801 50.0312)" fill="#FAC18A"/>
<ellipse cx="9.46067" cy="9.48257" rx="9.46067" ry="9.48257" transform="matrix(0.965753 -0.259465 0.258175 0.966098 60.751 4.90625)" fill="#FAC18A"/>
<path d="M84.633 56.3617L81.7974 56.9704L83.8134 54.8178C84.7947 53.7692 84.751 52.0987 83.7157 51.0888C82.6804 50.0788 81.0441 50.1101 80.0628 51.1588L72.2696 59.4844C71.7022 60.0899 71.4533 60.9395 71.6028 61.7701C71.7518 62.599 72.28 63.3103 73.0226 63.6822L83.7971 69.0654C84.3374 69.336 84.9241 69.3967 85.4673 69.2801C86.2172 69.1191 86.8872 68.6191 87.2453 67.8623C87.8639 66.5544 87.3236 64.9754 86.0386 64.3313L82.0204 62.3238L85.7358 61.5262C91.5085 60.2869 97.2308 64.0807 98.4911 69.9828L99.1479 73.0586C100.408 78.9606 96.7368 84.7711 90.9641 86.0104L84.5253 87.3927C83.1306 87.6921 82.2483 89.0909 82.5524 90.5149C82.8565 91.939 84.2327 92.8529 85.6273 92.5535L92.0661 91.1712C100.623 89.3343 106.065 80.7211 104.197 71.9727L103.54 68.8969C101.672 60.1486 93.1914 54.5244 84.633 56.3617Z" fill="white"/>
</g>
<defs>
<clipPath id="clip0_3727_92844">
<rect width="176" height="120" fill="white"/>
</clipPath>
</defs>
</svg>
